X: 1
T: Aston Hall
R: jig
Z: 2008 John Chambers <jc@trillian.mit.edu>
S: handwritten MS of unknown origin
M: 6/8
L: 1/8
K: G
DEF \
|: G2D G2D | GAB cBA | B2G B2G | Bcd edc | edB ABG | FGE D2c | BGB AFD | G3 z3 :|
[| gfg efg | aba fed | gfg efg | fge d3  | cBc acA | BAB gfe | dcB AGF | G3 z3 |]
[| GDG BDB | gdg bdb | GDG BDB | c3  A3  | GDG BGB | d3  B3  | B{c}dB cAF | G3 |]
